icons/_src/qn/youtube.svg

<svg xmlns="http://www.w3.org/2000/svg" width="24" height="24" viewBox="0 0 24 24"><path d="M16.23 7.102c-2.002-.136-6.462-.135-8.461 0-2.165.148-2.419 1.456-2.436 4.898.017 3.436.27 4.75 2.437 4.898 1.999.135 6.459.136 8.461 0 2.165-.148 2.42-1.457 2.437-4.898-.018-3.436-.271-4.75-2.438-4.898zm-6.23 7.12v-4.444l4.778 2.218-4.778 2.226zm2-12.222c5.514 0 10 4.486 10 10s-4.486 10-10 10-10-4.486-10-10 4.486-10 10-10zm0-2c-6.627 0-12 5.373-12 12s5.373 12 12 12 12-5.373 12-12-5.373-12-12-12z"/></svg>

<?xml version="1.0" encoding="utf-8"?>
<svg xmlns="http://www.w3.org/2000/svg" xmlns:xlink="http://www.w3.org/1999/xlink" viewBox="0 0 24 24">
  <path d="M16.23 7.102c-2.002-.136-6.462-.135-8.46 0C5.603 7.25 5.35 8.558 5.332 12c.017 3.436.27 4.75 2.437 4.898 2 .135 6.46.136 8.46 0 2.166-.148 2.42-1.457 2.438-4.898-.018-3.436-.27-4.75-2.438-4.898zM10 14.222V9.778l4.778 2.218L10 14.222zM12 2c5.514 0 10 4.486 10 10s-4.486 10-10 10S2 17.514 2 12 6.486 2 12 2zm0-2C5.373 0 0 5.373 0 12s5.373 12 12 12 12-5.373 12-12S18.627 0 12 0z"/>
</svg>
